X:65
T:Calum Breugach
R:strathspey
S:Toby A. Rider, Los Angeles Scottish Fiddler's Association
M:4/4
L:1/8
K:C
B|G<EE>G D>EG>B|A/2A/2A e>A c>Ae>A|G<EE>G D>EG>B|c>AB>G A/2A/2A e:|!
^f|g>g  a/2g/2^f/2e/2 d/2c/2B/2A/2  G>B|(ABcd) e>A d>Ae>^f| g>g  a/2g/2^
f/2e/2 d/2c/2B/2A/2 G>B| c>AB>G A/2A/2A {^g}a2 |!
gG D>EG>B| c>AB>G A/2A/2A e:|!
^f| g<ee>g d>eg>a| b<aa>g b<aa>b| g<ee>g d>eg>a|b<aa>^g a3:|
